src/main/resources/icons/AllIcons/actions/preserveCaseHover.svg

<!-- Copyright 2000-2021 JetBrains s.r.o. Use of this source code is governed by the Apache 2.0 license that can be found in the LICENSE file. -->
<svg width="16" height="16" viewBox="0 0 16 16" fill="none" xmlns="http://www.w3.org/2000/svg">
<path fill-rule="evenodd" clip-rule="evenodd" d="M7 1L10 3.5L7 6V1Z" fill="#7F8B91" fill-opacity="0.9"/>
<path fill-rule="evenodd" clip-rule="evenodd" d="M4.92775 5L7 13H5.4835L5.01025 11.0224H2.97925L2.5165 13H1L3.07225 5H4.92775ZM4.03182 6.48148L3.30233 9.81481H4.76744L4.03182 6.48148ZM12.9277 5L15 13H13.4835L13.0103 11.0224H10.9792L10.5165 13H9L11.0723 5H12.9277ZM12.032 6.483L11.3023 9.81481H12.7674L12.032 6.483ZM12.0326 6.48148H12.0318L12.032 6.483L12.0326 6.48148Z" fill="#7F8B91" fill-opacity="0.9"/>
</svg>

<svg xmlns="http://www.w3.org/2000/svg" width="16" height="16" viewBox="0 0 16 16"><rect id="frame" width="16" height="16" fill="none"/><g fill="none" fill-rule="evenodd"><path d="M0 0h16v16H0z"/><path fill="#7F8B91" fill-opacity=".9" d="M7 1l3 2.5L7 6z"/><path fill="#7F8B91" fill-opacity=".9" d="M4.928 5L7 13H5.484l-.474-1.978H2.98L2.516 13H1l2.072-8h1.856zm-.896 1.481l-.73 3.334h1.465L4.032 6.48zM12.928 5L15 13h-1.517l-.473-1.978h-2.03L10.516 13H9l2.072-8h1.856zm-.896 1.483l-.73 3.332h1.465l-.735-3.332zm0-.002v.002-.002z"/></g></svg>
